icons/core/bell.svg

<svg width="32" height="32" viewBox="0 0 32 32" fill="none" xmlns="http://www.w3.org/2000/svg">
<path fill-rule="evenodd" clip-rule="evenodd" d="M7.99999 12C7.99999 7.58174 11.5817 4.00002 16 4.00002C20.4183 4.00002 24 7.58174 24 12V16.5858C24 17.1162 24.2107 17.6249 24.5858 18L27 20.4142V23H5V20.4142L7.41421 18C7.78928 17.6249 7.99999 17.1162 7.99999 16.5858V12ZM16 2.00002C10.4771 2.00002 5.99999 6.47717 5.99999 12V16.5858L3.58578 19C3.21071 19.3751 3 19.8838 3 20.4142V23C3 24.1046 3.89543 25 5 25L11 25C11 27.7614 13.2386 30 16 30C18.7614 30 21 27.7614 21 25L27 25C28.1046 25 29 24.1046 29 23V20.4142C29 19.8838 28.7893 19.3751 28.4142 19L26 16.5858V12C26 6.47717 21.5228 2.00002 16 2.00002ZM19 25H13C13 26.6569 14.3431 28 16 28C17.6569 28 19 26.6569 19 25Z" fill="black"/>
</svg>

<svg width="32" height="32" viewBox="0 0 32 32" xmlns="http://www.w3.org/2000/svg">
    <path fill-rule="evenodd" d="M8 12a8 8 0 0116 0v4.586A2 2 0 0024.586 18L27 20.414V23H5v-2.586L7.414 18A2 2 0 008 16.586V12zm8-10C10.477 2 6 6.477 6 12v4.586L3.586 19A2 2 0 003 20.414V23a2 2 0 002 2h6a5 5 0 0010 0h6a2 2 0 002-2v-2.586A2 2 0 0028.414 19L26 16.586V12c0-5.523-4.477-10-10-10zm3 23h-6a3 3 0 106 0z"/>
</svg>
